X: 1668
T:Pretty Girl Milking Her Cow
R:polka
M:2/4
L:1/8
S:Old Grey Goose
N:Chords indicated by () or / are alternates that Doug played at least once on the record as far as I can tell, and could be played now and then; all chords are my best guesses but I think are pretty accurate.
Z:<http://tunes.nhcountrydance.com>.
K:Am
AB | "Am"cc ec | "G" BB dB | "Am" AG E2 | E2 AB | "Am" cc ec | "G"  BB dB | "Am" Az "(G)" Ez  | "Am" A2 AB ||
    "Am" cc ec | "G" BB dB | "Am" AG E2 | E2 ed | "Am" cB AG | "Em" EA AB | "Am" A2 "(F)" c>B | "Am" A2 "G" G2 |]
    "C" c>d ef | "C" g2 ec | "G"  BA G2 | "G" G2 AB |  "C" c>d ef | "C" g2 eg | "F" a>g a>g | "F" a>g af ||
"C (Am)" g2 "C" fe | "G" d2 ec | "Am" BA "(G)" G2 | "G" G2 AB | "Am" ce cA | "Em" EA AB | "Am" c/2B/2A c/2B/2A | "Am" c/2B/2A  |]

